X:6
T:High Road to Gairloch, The
M:2/4
L:1/8
Q:1/2=56
K:D
e8
|: {/g}e3f {/g}e2A2 | {/gcd}c2{/e}A2 {/g}e4 | {/Gdc}d2{/g}f3/2e/2 {/Gdc}d2{/e}G2 | {/gBd}B2{/e}G2 {/dc}d4 |!
{/g}e3f {/g}e2A2 | {/gcd}c2{/e}A2 {/g}e4 | {/g}A3B {/gcd}c2{/e}A2 | {/gBd}B4 {/G}A4 :|!
|: {/gcd}c2{/e}A2 {/g}A3B | {/gcd}c2{/e}A2 {/gcd}c4 | {/Gdc}d3c {/g}B3c | {/Gdc}d2{/e}B2 {/Gdc}d4 |!
{/gcd}c2{/e}A2 {/g}A3B | {/gcd}c2{/e}B2 {/gcd}c2e2 | {/g}A3B {/gcd}c2{/e}A2 | {/gBd}B4 {/G}A4 :|

